svg/500/outlined/storage-fill.svg

<svg xmlns="http://www.w3.org/2000/svg" width="48" height="48" viewBox="0 -960 960 960"><path d="M111.869-146.13v-159.24H848.37v159.24H111.869ZM180-188.435h74.63v-74.869H180v74.869ZM111.869-654.63v-159.24H848.37v159.24H111.869ZM180-696.935h74.63v-74.87H180v74.87ZM111.869-400.5v-159H848.37v159H111.869ZM180-442.565h74.63v-74.87H180v74.87Z"/></svg>

<svg xmlns="http://www.w3.org/2000/svg" width="48" height="48" viewBox="0 -960 960 960"><path d="M111.87-146.13v-159.24h736.5v159.24h-736.5Zm68.13-42.3h74.63v-74.87H180v74.87Zm-68.13-466.2v-159.24h736.5v159.24h-736.5Zm68.13-42.3h74.63v-74.87H180v74.87ZM111.87-400.5v-159h736.5v159h-736.5ZM180-442.57h74.63v-74.86H180v74.86Z"/></svg>
